X:6769
T:Hanter-dro 2
G:Kazimodal
R:Hanter-dro
C:Traditionnel, arrangement Ronan Keryell http://kazimodal.trad.org
Q:C2=116
P:B5
M:3/4
S:Tonioù Breizh-Izel 1925 (Pleskob)
K:Gm
P:B
%%MIDI gchord fcfcfc
%%MIDI chordprog 105
%%MIDI bassprog 32
%%MIDI bassvol 127
"F"(cB/2)A/2 "Gm"GB (A/2G/2)"F"F | {GA}"Eb"GF/2E/2 "Dm"DG (G/2A/2)"Bb"B |\
"C"(cB/2)A/2 "Eb"GB (A/2G/2)"F"F | "Dm"(GF/2)E/2 DG "Eb"G2 |
|: "Gm"(GA/2)B/2 "F"cA "Eb"(B/2A/2)G | "Gm"{GA}GA/2B/2 "Bb"cB "C"A2 :|
"F"(cB/2)A/2 "Gm"GB (A/2G/2)"F"F | "Eb"GF/2E/2 "Dm"DG (G/2A/2)"Bb"B |\
"C"(cB/2)A/2 "Eb"GB (A/2G/2)"F"F | "Dm"{GA}(GF/2)E/2 (DG) "Eb"G2 ||
\bigskip


